X:1
T: Grandfather's Pet
C:
R:Jig
Q:180
K:D
M:6/8
L:1/16
e2|d2B2A2 A2B2A2|d2B2A2 A2B2A2|d4e2 f4d2|e4d2 B4e2|d2B2A2 A2B2A2|d2B2A2 A2B2A2|d4f2 a4g2|f2g2e2 d4e2|
d2B2A2 A2B2A2|d2B2A2 A2B2A2|d4e2 f4d2|e4d2 B4e2|d2B2A2 A2B2A2|d2B2A2 A2B2A2|d4f2 a4g2|f2g2e2 d4e2|
f2g2f2 f2e2d2|e4f2 g4e2|f2g2f2 f2e2d2|e2c2A2 A4d2|f2g2f2 f2e2d2|e4f2 g4g2|a2g2f2 g2e2c2|d6 d4e2|
f2g2f2 f2e2d2|e4f2 g4e2|f2g2f2 f2e2d2|e2c2A2 A4d2|f2g2f2 f2e2d2|e4f2 g4g2|a2g2f2 g2e2c2|d6 d4||
